images/6605110.svg

<?xml version="1.0" encoding="UTF-8"?>
<svg xmlns="http://www.w3.org/2000/svg" xmlns:xlink="http://www.w3.org/1999/xlink" width="300pt" height="300pt" viewBox="0 0 300 300" version="1.1">
<defs>
<g>
<symbol overflow="visible" id="glyph0-0">
<path style="stroke:none;" d="M 0.453125 1.59375 L 0.453125 -6.34375 L 4.953125 -6.34375 L 4.953125 1.59375 Z M 0.953125 1.09375 L 4.453125 1.09375 L 4.453125 -5.84375 L 0.953125 -5.84375 Z M 0.953125 1.09375 "/>
</symbol>
<symbol overflow="visible" id="glyph0-1">
<path style="stroke:none;" d="M 0.890625 -6.5625 L 2.078125 -6.5625 L 4.984375 -1.078125 L 4.984375 -6.5625 L 5.84375 -6.5625 L 5.84375 0 L 4.65625 0 L 1.75 -5.484375 L 1.75 0 L 0.890625 0 Z M 0.890625 -6.5625 "/>
</symbol>
<symbol overflow="visible" id="glyph0-2">
<path style="stroke:none;" d="M 0.890625 -6.5625 L 1.765625 -6.5625 L 1.765625 -3.875 L 5 -3.875 L 5 -6.5625 L 5.890625 -6.5625 L 5.890625 0 L 5 0 L 5 -3.125 L 1.765625 -3.125 L 1.765625 0 L 0.890625 0 Z M 0.890625 -6.5625 "/>
</symbol>
</g>
</defs>
<g id="surface48765">
<rect x="0" y="0" width="300" height="300" style="fill:rgb(100%,100%,100%);fill-opacity:1;stroke:none;"/>
<path style="fill:none;stroke-width:1.2;stroke-linecap:butt;stroke-linejoin:miter;stroke:rgb(0%,0%,0%);stroke-opacity:1;stroke-miterlimit:10;" d="M 151.84375 220.484375 L 153.566406 200.078125 "/>
<path style="fill:none;stroke-width:1.2;stroke-linecap:butt;stroke-linejoin:miter;stroke:rgb(0%,0%,0%);stroke-opacity:1;stroke-miterlimit:10;" d="M 153.566406 200.078125 L 145.160156 194.234375 "/>
<path style="fill:none;stroke-width:1.2;stroke-linecap:butt;stroke-linejoin:miter;stroke:rgb(0%,0%,100%);stroke-opacity:1;stroke-miterlimit:10;" d="M 145.160156 194.234375 L 136.753906 188.386719 "/>
<path style="fill:none;stroke-width:1.2;stroke-linecap:butt;stroke-linejoin:miter;stroke:rgb(0%,0%,0%);stroke-opacity:1;stroke-miterlimit:10;" d="M 154.632812 194.953125 L 147.910156 190.277344 "/>
<path style="fill:none;stroke-width:1.2;stroke-linecap:butt;stroke-linejoin:miter;stroke:rgb(0%,0%,100%);stroke-opacity:1;stroke-miterlimit:10;" d="M 147.910156 190.277344 L 141.183594 185.601562 "/>
<path style="fill:none;stroke-width:1.2;stroke-linecap:butt;stroke-linejoin:miter;stroke:rgb(0%,0%,100%);stroke-opacity:1;stroke-miterlimit:10;" d="M 172.09375 191.363281 L 162.828125 195.722656 "/>
<path style="fill:none;stroke-width:1.2;stroke-linecap:butt;stroke-linejoin:miter;stroke:rgb(0%,0%,0%);stroke-opacity:1;stroke-miterlimit:10;" d="M 162.828125 195.722656 L 153.566406 200.078125 "/>
<path style="fill:none;stroke-width:1.2;stroke-linecap:butt;stroke-linejoin:miter;stroke:rgb(0%,0%,100%);stroke-opacity:1;stroke-miterlimit:10;" d="M 136.753906 188.386719 L 137.613281 178.183594 "/>
<path style="fill:none;stroke-width:1.2;stroke-linecap:butt;stroke-linejoin:miter;stroke:rgb(0%,0%,0%);stroke-opacity:1;stroke-miterlimit:10;" d="M 137.613281 178.183594 L 138.472656 167.980469 "/>
<path style=" stroke:none;fill-rule:nonzero;fill:rgb(100%,100%,100%);fill-opacity:1;" d="M 133.753906 182.886719 L 140.753906 182.886719 L 140.753906 193.886719 L 133.753906 193.886719 Z M 133.753906 182.886719 "/>
<g style="fill:rgb(0%,0%,100%);fill-opacity:1;">
  <use xlink:href="#glyph0-1" x="133.753906" y="191.549805"/>
</g>
<path style="fill:none;stroke-width:1.2;stroke-linecap:butt;stroke-linejoin:miter;stroke:rgb(0%,0%,0%);stroke-opacity:1;stroke-miterlimit:10;" d="M 138.472656 167.980469 L 157.003906 159.269531 "/>
<path style="fill:none;stroke-width:1.2;stroke-linecap:butt;stroke-linejoin:miter;stroke:rgb(0%,0%,0%);stroke-opacity:1;stroke-miterlimit:10;" d="M 138.273438 162.75 L 153.097656 155.777344 "/>
<path style="fill:none;stroke-width:1.2;stroke-linecap:butt;stroke-linejoin:miter;stroke:rgb(0%,0%,100%);stroke-opacity:1;stroke-miterlimit:10;" d="M 124.457031 153.050781 L 131.464844 160.515625 "/>
<path style="fill:none;stroke-width:1.2;stroke-linecap:butt;stroke-linejoin:miter;stroke:rgb(0%,0%,0%);stroke-opacity:1;stroke-miterlimit:10;" d="M 131.464844 160.515625 L 138.472656 167.980469 "/>
<path style="fill:none;stroke-width:1.2;stroke-linecap:butt;stroke-linejoin:miter;stroke:rgb(0%,0%,0%);stroke-opacity:1;stroke-miterlimit:10;" d="M 157.003906 159.269531 L 173.8125 170.960938 "/>
<path style="fill:none;stroke-width:1.2;stroke-linecap:butt;stroke-linejoin:miter;stroke:rgb(0%,0%,0%);stroke-opacity:1;stroke-miterlimit:10;" d="M 157.003906 159.269531 L 155.722656 149.109375 "/>
<path style="fill:none;stroke-width:1.2;stroke-linecap:butt;stroke-linejoin:miter;stroke:rgb(0%,0%,100%);stroke-opacity:1;stroke-miterlimit:10;" d="M 155.722656 149.109375 L 154.441406 138.953125 "/>
<path style="fill:none;stroke-width:1.2;stroke-linecap:butt;stroke-linejoin:miter;stroke:rgb(0%,0%,0%);stroke-opacity:1;stroke-miterlimit:10;" d="M 173.8125 170.960938 L 172.953125 181.160156 "/>
<path style="fill:none;stroke-width:1.2;stroke-linecap:butt;stroke-linejoin:miter;stroke:rgb(0%,0%,100%);stroke-opacity:1;stroke-miterlimit:10;" d="M 172.953125 181.160156 L 172.09375 191.363281 "/>
<path style="fill:none;stroke-width:1.2;stroke-linecap:butt;stroke-linejoin:miter;stroke:rgb(0%,0%,0%);stroke-opacity:1;stroke-miterlimit:10;" d="M 168.839844 172.59375 L 168.152344 180.757812 "/>
<path style="fill:none;stroke-width:1.2;stroke-linecap:butt;stroke-linejoin:miter;stroke:rgb(0%,0%,100%);stroke-opacity:1;stroke-miterlimit:10;" d="M 168.152344 180.757812 L 167.464844 188.917969 "/>
<path style="fill:none;stroke-width:1.2;stroke-linecap:butt;stroke-linejoin:miter;stroke:rgb(0%,0%,0%);stroke-opacity:1;stroke-miterlimit:10;" d="M 173.8125 170.960938 L 183.078125 166.601562 "/>
<path style="fill:none;stroke-width:1.2;stroke-linecap:butt;stroke-linejoin:miter;stroke:rgb(0%,0%,100%);stroke-opacity:1;stroke-miterlimit:10;" d="M 183.078125 166.601562 L 192.34375 162.246094 "/>
<path style=" stroke:none;fill-rule:nonzero;fill:rgb(100%,100%,100%);fill-opacity:1;" d="M 169.09375 185.863281 L 176.09375 185.863281 L 176.09375 196.863281 L 169.09375 196.863281 Z M 169.09375 185.863281 "/>
<g style="fill:rgb(0%,0%,100%);fill-opacity:1;">
  <use xlink:href="#glyph0-1" x="169.09375" y="194.526367"/>
</g>
<path style="fill:none;stroke-width:1.2;stroke-linecap:butt;stroke-linejoin:miter;stroke:rgb(0%,0%,100%);stroke-opacity:1;stroke-miterlimit:10;" d="M 192.34375 162.246094 L 200.75 168.089844 "/>
<path style="fill:none;stroke-width:1.2;stroke-linecap:butt;stroke-linejoin:miter;stroke:rgb(0%,0%,0%);stroke-opacity:1;stroke-miterlimit:10;" d="M 200.75 168.089844 L 209.15625 173.9375 "/>
<path style=" stroke:none;fill-rule:nonzero;fill:rgb(100%,100%,100%);fill-opacity:1;" d="M 185.34375 156.746094 L 199.34375 156.746094 L 199.34375 167.746094 L 185.34375 167.746094 Z M 185.34375 156.746094 "/>
<g style="fill:rgb(0%,0%,100%);fill-opacity:1;">
  <use xlink:href="#glyph0-1" x="185.34375" y="165.40918"/>
  <use xlink:href="#glyph0-2" x="192.321289" y="165.40918"/>
</g>
<path style="fill:none;stroke-width:1.2;stroke-linecap:butt;stroke-linejoin:miter;stroke:rgb(0%,0%,0%);stroke-opacity:1;stroke-miterlimit:10;" d="M 209.15625 173.9375 L 227.6875 165.222656 "/>
<path style="fill:none;stroke-width:1.2;stroke-linecap:butt;stroke-linejoin:miter;stroke:rgb(0%,0%,0%);stroke-opacity:1;stroke-miterlimit:10;" d="M 227.6875 165.222656 L 244.5 176.914062 "/>
<path style="fill:none;stroke-width:1.2;stroke-linecap:butt;stroke-linejoin:miter;stroke:rgb(0%,0%,0%);stroke-opacity:1;stroke-miterlimit:10;" d="M 232.121094 162.4375 L 245.570312 171.789062 "/>
<path style="fill:none;stroke-width:1.2;stroke-linecap:butt;stroke-linejoin:miter;stroke:rgb(0%,0%,0%);stroke-opacity:1;stroke-miterlimit:10;" d="M 229.40625 144.816406 L 227.6875 165.222656 "/>
<path style="fill:none;stroke-width:1.2;stroke-linecap:butt;stroke-linejoin:miter;stroke:rgb(0%,0%,0%);stroke-opacity:1;stroke-miterlimit:10;" d="M 244.5 176.914062 L 263.03125 168.199219 "/>
<path style="fill:none;stroke-width:1.2;stroke-linecap:butt;stroke-linejoin:miter;stroke:rgb(0%,0%,0%);stroke-opacity:1;stroke-miterlimit:10;" d="M 263.03125 168.199219 L 264.75 147.792969 "/>
<path style="fill:none;stroke-width:1.2;stroke-linecap:butt;stroke-linejoin:miter;stroke:rgb(0%,0%,0%);stroke-opacity:1;stroke-miterlimit:10;" d="M 258.402344 165.753906 L 259.777344 149.429688 "/>
<path style="fill:none;stroke-width:1.2;stroke-linecap:butt;stroke-linejoin:miter;stroke:rgb(0%,0%,0%);stroke-opacity:1;stroke-miterlimit:10;" d="M 264.75 147.792969 L 247.9375 136.101562 "/>
<path style="fill:none;stroke-width:1.2;stroke-linecap:butt;stroke-linejoin:miter;stroke:rgb(0%,0%,0%);stroke-opacity:1;stroke-miterlimit:10;" d="M 247.9375 136.101562 L 229.40625 144.816406 "/>
<path style="fill:none;stroke-width:1.2;stroke-linecap:butt;stroke-linejoin:miter;stroke:rgb(0%,0%,0%);stroke-opacity:1;stroke-miterlimit:10;" d="M 248.136719 141.335938 L 233.308594 148.304688 "/>
<path style="fill:none;stroke-width:1.2;stroke-linecap:butt;stroke-linejoin:miter;stroke:rgb(0%,0%,100%);stroke-opacity:1;stroke-miterlimit:10;" d="M 154.441406 138.953125 L 144.382812 137.03125 "/>
<path style="fill:none;stroke-width:1.2;stroke-linecap:butt;stroke-linejoin:miter;stroke:rgb(0%,0%,0%);stroke-opacity:1;stroke-miterlimit:10;" d="M 144.382812 137.03125 L 134.328125 135.109375 "/>
<path style="fill:none;stroke-width:1.2;stroke-linecap:butt;stroke-linejoin:miter;stroke:rgb(0%,0%,100%);stroke-opacity:1;stroke-miterlimit:10;" d="M 151.527344 143.300781 L 143.480469 141.761719 "/>
<path style="fill:none;stroke-width:1.2;stroke-linecap:butt;stroke-linejoin:miter;stroke:rgb(0%,0%,0%);stroke-opacity:1;stroke-miterlimit:10;" d="M 143.480469 141.761719 L 135.433594 140.226562 "/>
<path style=" stroke:none;fill-rule:nonzero;fill:rgb(100%,100%,100%);fill-opacity:1;" d="M 151.441406 133.453125 L 158.441406 133.453125 L 158.441406 144.453125 L 151.441406 144.453125 Z M 151.441406 133.453125 "/>
<g style="fill:rgb(0%,0%,100%);fill-opacity:1;">
  <use xlink:href="#glyph0-1" x="151.441406" y="142.116211"/>
</g>
<path style="fill:none;stroke-width:1.2;stroke-linecap:butt;stroke-linejoin:miter;stroke:rgb(0%,0%,0%);stroke-opacity:1;stroke-miterlimit:10;" d="M 134.328125 135.109375 L 129.390625 144.078125 "/>
<path style="fill:none;stroke-width:1.2;stroke-linecap:butt;stroke-linejoin:miter;stroke:rgb(0%,0%,100%);stroke-opacity:1;stroke-miterlimit:10;" d="M 129.390625 144.078125 L 124.457031 153.050781 "/>
<path style="fill:none;stroke-width:1.2;stroke-linecap:butt;stroke-linejoin:miter;stroke:rgb(0%,0%,0%);stroke-opacity:1;stroke-miterlimit:10;" d="M 134.328125 135.109375 L 125.613281 116.578125 "/>
<path style="fill:none;stroke-width:1.2;stroke-linecap:butt;stroke-linejoin:miter;stroke:rgb(0%,0%,100%);stroke-opacity:1;stroke-miterlimit:10;" d="M 124.457031 153.050781 L 114.300781 154.332031 "/>
<path style="fill:none;stroke-width:1.2;stroke-linecap:butt;stroke-linejoin:miter;stroke:rgb(0%,0%,0%);stroke-opacity:1;stroke-miterlimit:10;" d="M 114.300781 154.332031 L 104.140625 155.613281 "/>
<path style=" stroke:none;fill-rule:nonzero;fill:rgb(100%,100%,100%);fill-opacity:1;" d="M 121.457031 147.550781 L 128.457031 147.550781 L 128.457031 158.550781 L 121.457031 158.550781 Z M 121.457031 147.550781 "/>
<g style="fill:rgb(0%,0%,100%);fill-opacity:1;">
  <use xlink:href="#glyph0-1" x="121.457031" y="156.213867"/>
</g>
<path style="fill:none;stroke-width:1.2;stroke-linecap:butt;stroke-linejoin:miter;stroke:rgb(0%,0%,0%);stroke-opacity:1;stroke-miterlimit:10;" d="M 104.140625 155.613281 L 96.199219 174.488281 "/>
<path style="fill:none;stroke-width:1.2;stroke-linecap:butt;stroke-linejoin:miter;stroke:rgb(0%,0%,0%);stroke-opacity:1;stroke-miterlimit:10;" d="M 96.199219 174.488281 L 86.042969 175.769531 "/>
<path style="fill:none;stroke-width:1.2;stroke-linecap:butt;stroke-linejoin:miter;stroke:rgb(0%,0%,100%);stroke-opacity:1;stroke-miterlimit:10;" d="M 86.042969 175.769531 L 75.882812 177.046875 "/>
<path style="fill:none;stroke-width:1.2;stroke-linecap:butt;stroke-linejoin:miter;stroke:rgb(0%,0%,100%);stroke-opacity:1;stroke-miterlimit:10;" d="M 75.882812 177.046875 L 69.695312 168.890625 "/>
<path style="fill:none;stroke-width:1.2;stroke-linecap:butt;stroke-linejoin:miter;stroke:rgb(0%,0%,0%);stroke-opacity:1;stroke-miterlimit:10;" d="M 69.695312 168.890625 L 63.507812 160.734375 "/>
<path style="fill:none;stroke-width:1.2;stroke-linecap:butt;stroke-linejoin:miter;stroke:rgb(0%,0%,0%);stroke-opacity:1;stroke-miterlimit:10;" d="M 67.941406 195.925781 L 71.914062 186.488281 "/>
<path style="fill:none;stroke-width:1.2;stroke-linecap:butt;stroke-linejoin:miter;stroke:rgb(0%,0%,100%);stroke-opacity:1;stroke-miterlimit:10;" d="M 71.914062 186.488281 L 75.882812 177.046875 "/>
<path style=" stroke:none;fill-rule:nonzero;fill:rgb(100%,100%,100%);fill-opacity:1;" d="M 72.882812 171.546875 L 79.882812 171.546875 L 79.882812 182.546875 L 72.882812 182.546875 Z M 72.882812 171.546875 "/>
<g style="fill:rgb(0%,0%,100%);fill-opacity:1;">
  <use xlink:href="#glyph0-1" x="72.882812" y="180.209961"/>
</g>
<path style="fill:none;stroke-width:1.2;stroke-linecap:butt;stroke-linejoin:miter;stroke:rgb(0%,0%,0%);stroke-opacity:1;stroke-miterlimit:10;" d="M 63.507812 160.734375 L 43.191406 163.296875 "/>
<path style="fill:none;stroke-width:1.2;stroke-linecap:butt;stroke-linejoin:miter;stroke:rgb(0%,0%,0%);stroke-opacity:1;stroke-miterlimit:10;" d="M 43.191406 163.296875 L 35.25 182.171875 "/>
<path style="fill:none;stroke-width:1.2;stroke-linecap:butt;stroke-linejoin:miter;stroke:rgb(0%,0%,0%);stroke-opacity:1;stroke-miterlimit:10;" d="M 35.25 182.171875 L 47.625 198.484375 "/>
<path style="fill:none;stroke-width:1.2;stroke-linecap:butt;stroke-linejoin:miter;stroke:rgb(0%,0%,0%);stroke-opacity:1;stroke-miterlimit:10;" d="M 47.625 198.484375 L 67.941406 195.925781 "/>
<path style="fill:none;stroke-width:1.2;stroke-linecap:butt;stroke-linejoin:miter;stroke:rgb(0%,0%,0%);stroke-opacity:1;stroke-miterlimit:10;" d="M 125.613281 116.578125 L 137.304688 99.765625 "/>
<path style="fill:none;stroke-width:1.2;stroke-linecap:butt;stroke-linejoin:miter;stroke:rgb(0%,0%,0%);stroke-opacity:1;stroke-miterlimit:10;" d="M 122.828125 112.144531 L 132.179688 98.695312 "/>
<path style="fill:none;stroke-width:1.2;stroke-linecap:butt;stroke-linejoin:miter;stroke:rgb(0%,0%,0%);stroke-opacity:1;stroke-miterlimit:10;" d="M 105.207031 114.859375 L 125.613281 116.578125 "/>
<path style="fill:none;stroke-width:1.2;stroke-linecap:butt;stroke-linejoin:miter;stroke:rgb(0%,0%,0%);stroke-opacity:1;stroke-miterlimit:10;" d="M 137.304688 99.765625 L 128.589844 81.234375 "/>
<path style="fill:none;stroke-width:1.2;stroke-linecap:butt;stroke-linejoin:miter;stroke:rgb(0%,0%,0%);stroke-opacity:1;stroke-miterlimit:10;" d="M 128.589844 81.234375 L 108.183594 79.515625 "/>
<path style="fill:none;stroke-width:1.2;stroke-linecap:butt;stroke-linejoin:miter;stroke:rgb(0%,0%,0%);stroke-opacity:1;stroke-miterlimit:10;" d="M 126.144531 85.863281 L 109.820312 84.488281 "/>
<path style="fill:none;stroke-width:1.2;stroke-linecap:butt;stroke-linejoin:miter;stroke:rgb(0%,0%,0%);stroke-opacity:1;stroke-miterlimit:10;" d="M 108.183594 79.515625 L 96.492188 96.328125 "/>
<path style="fill:none;stroke-width:1.2;stroke-linecap:butt;stroke-linejoin:miter;stroke:rgb(0%,0%,0%);stroke-opacity:1;stroke-miterlimit:10;" d="M 96.492188 96.328125 L 105.207031 114.859375 "/>
<path style="fill:none;stroke-width:1.2;stroke-linecap:butt;stroke-linejoin:miter;stroke:rgb(0%,0%,0%);stroke-opacity:1;stroke-miterlimit:10;" d="M 101.726562 96.132812 L 108.695312 110.957031 "/>
</g>
</svg>

<svg xmlns="http://www.w3.org/2000/svg" xmlns:xlink="http://www.w3.org/1999/xlink" width="300pt" height="300pt" viewBox="0 0 300 300"><defs><symbol overflow="visible"><path d="M.453 1.594v-7.938h4.5v7.938zm.5-.5h3.5v-6.938h-3.5zm0 0"/></symbol><symbol overflow="visible" id="a"><path d="M.89-6.563H2.08l2.906 5.485v-5.484h.86V0H4.656L1.75-5.484V0H.89zm0 0"/></symbol><symbol overflow="visible" id="b"><path d="M.89-6.563h.876v2.688H5v-2.688h.89V0H5v-3.125H1.766V0H.89zm0 0"/></symbol></defs><g><path fill="#fff" d="M0 0h300v300H0z"/><path d="M151.844 220.484l1.722-20.406M153.566 200.078l-8.406-5.844" stroke-width="1.2" stroke="#000" stroke-miterlimit="10" fill="none"/><path d="M145.16 194.234l-8.406-5.847" stroke-width="1.2" stroke="#00f" stroke-miterlimit="10" fill="none"/><path d="M154.633 194.953l-6.723-4.676" stroke-width="1.2" stroke="#000" stroke-miterlimit="10" fill="none"/><path d="M147.91 190.277l-6.726-4.675M172.094 191.363l-9.266 4.36" stroke-width="1.2" stroke="#00f" stroke-miterlimit="10" fill="none"/><path d="M162.828 195.723l-9.262 4.355" stroke-width="1.2" stroke="#000" stroke-miterlimit="10" fill="none"/><path d="M136.754 188.387l.86-10.203" stroke-width="1.2" stroke="#00f" stroke-miterlimit="10" fill="none"/><path d="M137.613 178.184l.86-10.204" stroke-width="1.2" stroke="#000" stroke-miterlimit="10" fill="none"/><path d="M133.754 182.887h7v11h-7zm0 0" fill="#fff"/><use xlink:href="#a" x="133.754" y="191.55" fill="#00f"/><path d="M138.473 167.98l18.53-8.71M138.273 162.75l14.825-6.973" stroke-width="1.2" stroke="#000" stroke-miterlimit="10" fill="none"/><path d="M124.457 153.05l7.008 7.466" stroke-width="1.2" stroke="#00f" stroke-miterlimit="10" fill="none"/><path d="M131.465 160.516l7.008 7.464M157.004 159.27l16.81 11.69M157.004 159.27l-1.28-10.16" stroke-width="1.2" stroke="#000" stroke-miterlimit="10" fill="none"/><path d="M155.723 149.11l-1.282-10.157" stroke-width="1.2" stroke="#00f" stroke-miterlimit="10" fill="none"/><path d="M173.813 170.96l-.86 10.2" stroke-width="1.2" stroke="#000" stroke-miterlimit="10" fill="none"/><path d="M172.953 181.16l-.86 10.203" stroke-width="1.2" stroke="#00f" stroke-miterlimit="10" fill="none"/><path d="M168.84 172.594l-.688 8.164" stroke-width="1.2" stroke="#000" stroke-miterlimit="10" fill="none"/><path d="M168.152 180.758l-.687 8.16" stroke-width="1.2" stroke="#00f" stroke-miterlimit="10" fill="none"/><path d="M173.813 170.96l9.265-4.358" stroke-width="1.2" stroke="#000" stroke-miterlimit="10" fill="none"/><path d="M183.078 166.602l9.266-4.356" stroke-width="1.2" stroke="#00f" stroke-miterlimit="10" fill="none"/><path d="M169.094 185.863h7v11h-7zm0 0" fill="#fff"/><use xlink:href="#a" x="169.094" y="194.526" fill="#00f"/><path d="M192.344 162.246l8.406 5.844" stroke-width="1.2" stroke="#00f" stroke-miterlimit="10" fill="none"/><path d="M200.75 168.09l8.406 5.847" stroke-width="1.2" stroke="#000" stroke-miterlimit="10" fill="none"/><path d="M185.344 156.746h14v11h-14zm0 0" fill="#fff"/><g fill="#00f"><use xlink:href="#a" x="185.344" y="165.409"/><use xlink:href="#b" x="192.321" y="165.409"/></g><path d="M209.156 173.938l18.53-8.715M227.688 165.223l16.812 11.69M232.12 162.438l13.45 9.35M229.406 144.816l-1.72 20.407M244.5 176.914l18.53-8.715M263.03 168.2l1.72-20.407M258.402 165.754l1.375-16.324M264.75 147.793l-16.813-11.69M247.938 136.102l-18.532 8.714M248.137 141.336l-14.828 6.97" stroke-width="1.2" stroke="#000" stroke-miterlimit="10" fill="none"/><path d="M154.44 138.953l-10.057-1.922" stroke-width="1.2" stroke="#00f" stroke-miterlimit="10" fill="none"/><path d="M144.383 137.03l-10.055-1.92" stroke-width="1.2" stroke="#000" stroke-miterlimit="10" fill="none"/><path d="M151.527 143.3l-8.047-1.538" stroke-width="1.2" stroke="#00f" stroke-miterlimit="10" fill="none"/><path d="M143.48 141.762l-8.046-1.535" stroke-width="1.2" stroke="#000" stroke-miterlimit="10" fill="none"/><path d="M151.44 133.453h7v11h-7zm0 0" fill="#fff"/><use xlink:href="#a" x="151.441" y="142.116" fill="#00f"/><path d="M134.328 135.11l-4.937 8.968" stroke-width="1.2" stroke="#000" stroke-miterlimit="10" fill="none"/><path d="M129.39 144.078l-4.933 8.973" stroke-width="1.2" stroke="#00f" stroke-miterlimit="10" fill="none"/><path d="M134.328 135.11l-8.715-18.532" stroke-width="1.2" stroke="#000" stroke-miterlimit="10" fill="none"/><path d="M124.457 153.05l-10.156 1.282" stroke-width="1.2" stroke="#00f" stroke-miterlimit="10" fill="none"/><path d="M114.3 154.332l-10.16 1.28" stroke-width="1.2" stroke="#000" stroke-miterlimit="10" fill="none"/><path d="M121.457 147.55h7v11h-7zm0 0" fill="#fff"/><use xlink:href="#a" x="121.457" y="156.214" fill="#00f"/><path d="M104.14 155.613l-7.94 18.875M96.2 174.488l-10.157 1.282" stroke-width="1.2" stroke="#000" stroke-miterlimit="10" fill="none"/><path d="M86.043 175.77l-10.16 1.277M75.883 177.047l-6.188-8.156" stroke-width="1.2" stroke="#00f" stroke-miterlimit="10" fill="none"/><path d="M69.695 168.89l-6.187-8.156M67.94 195.926l3.974-9.438" stroke-width="1.2" stroke="#000" stroke-miterlimit="10" fill="none"/><path d="M71.914 186.488l3.97-9.44" stroke-width="1.2" stroke="#00f" stroke-miterlimit="10" fill="none"/><path d="M72.883 171.547h7v11h-7zm0 0" fill="#fff"/><use xlink:href="#a" x="72.883" y="180.21" fill="#00f"/><path d="M63.508 160.734l-20.317 2.563M43.19 163.297l-7.94 18.875M35.25 182.172l12.375 16.312M47.625 198.484l20.316-2.558M125.613 116.578l11.692-16.812M122.828 112.145l9.352-13.45M105.207 114.86l20.406 1.718M137.305 99.766l-8.715-18.532M128.59 81.234l-20.406-1.718M126.145 85.863l-16.325-1.375M108.184 79.516L96.492 96.328M96.492 96.328l8.715 18.53M101.727 96.133l6.968 14.824" stroke-width="1.2" stroke="#000" stroke-miterlimit="10" fill="none"/></g></svg>
